X: 40089
T: Thunderhead
R: jig
M: 6/8
K: Bminor
|:B3 fBB|eBB dBA|B3 f3|edB ABd|
B3 fBB|eBB def|gfe f3|edB ABd:|
|:afd edB|ABd c3|Bcd c3|dcB c3|
afd edB|ABd c3|Bcd cea|1 gec dfg:|2 gec dc=c||

